X:1
T:Antífona
T:Antífona
T:10.10.10.8
T:EVENTIDE Willian Henry Monk (1823-1889) 
T:CC001
T:Henry Maxwell Wright (1849-1931)
%%score [ ( 1 2 ) ( 3 4 ) ]
L:1/8
Q:1/4=102
M:4/4
K:Eb
V:1 treble nm="S\nA"
V:2 treble 
V:3 bass nm="T\nB"
V:4 bass 
V:1
"Eb""^.00" G4"Gm/Bb" G2"Bb" F2 |"Cm" E4"Eb/G" B4 |"Ab" c2"Bb" B2"Cm7" B2"Bb7/D" A2 |"Eb" G8 | %4
w: 1. A ti, ó|Deus, fi-|el e bom Se-|nhor,|
w: 2. A ti, Deus|Fi- lho,|Sal- va- dor Je-|sus,|
w: 3. A ti, é|Deus, re-|al Con- so- la-|dor,|
w: 4. A ti, Deus|tri- no,|po- de- ro- so|Deus,|
"Eb" G4"Ab/C" A2"Eb/Bb" B2 |"Ab" c4"Eb" B4 |"F7" A2 F2"Eb" G2"F7/C" =A2 |"Bb" B8 | %8
w: e- ter- no|Pai, su-|pre- mo ben- fei-|tor,|
w: da gra- ça a|fon- te,|da ver- da- de a|luz,|
w: di- vi- no|fo- go|san- ti- fi- ca-|dor,|
w: que es- tás pre-|sen- te|sem- pre jun- to aos|teus,|
"Eb" G4"Gm/Bb" G2"Bb" F2 |"Cm" E4"Eb/G" B4 |"Cm7/G" B2 _A2"Cpower#5" A2 G2 |"Fm" F8 | %12
w: nós, os teus|ser- vos,|vi- mos dar lou-|vor.|
w: por teu a-|mor, me-|di- do pe- la|cruz.|
w: que nos a-|ni- ma e|nos a- cen- de o a-|mor.|
w: a mi- nis-|trar as|bên- çãos lá dos|céus,|
"Bb" (F4"Eb/G" G2)"Bb7/F" A2 |"Eb" G2"Bb7" F2"Cm" E2"Fm/Ab" A2 |"Eb/Bb" (G4"Bb7" F4) |"Eb" E8 |] %16
w: A- * le-|lu- ia! A- le-|lu- *|ia!|
w: A- * le-|lu- ia! A- le-|lu- *|ia!|
w: A- * le-|lu- ia! A- le-|lu- *|ia!|
w: A- * le-|lu- ia! A- le-|lu- *|ia!|
V:2
 E4 D2 D2 | E4 E4 | E2 D2 E2 F2 | E8 | E4 E2 E2 | E4 E4 | E2 F2 E2 E2 | D8 | E4 D2 D2 | E4 E4 | %10
 E2 E2 =E2 E2 | F8 | (D4 E2) D2 | E2 D2 E2 F2 | (E4 D4) | E8 |] %16
V:3
 B,4 B,2 A,2 | G,4 E,4 | E,2 B,2 B,2 B,2 | B,8 | B,4 A,2 G,2 | A,4 G,4 | C2 B,2 B,2 E,2 | F,8 | %8
 G,2 A,2 B,2 A,2 | G,4 E2 D2 | C2 C2 C2 B,2 | A,8 | (B,4 B,2) B,2 | B,2 A,2 G,2 C2 | (B,6 A,2) | %15
 G,8 |] %16
V:4
 E,4 B,,2 B,,2 | C,4 G,,4 | A,,2 B,,2 C,2 D,2 | E,8 | E,2 D,2 C,2 B,,2 | A,,4 E,4 | %6
 F,2 D,2 E,2 C,2 | B,,8 | E,4 B,,2 B,,2 | C,4 G,,4 | A,,3 B,, C,2 C,2 | F,8 | (A,4 G,2) F,2 | %13
 E,2 B,,2 C,2 A,,2 | (B,,4 B,,4) | E,8 |] %16

